public/svg/arrow1.svg

<svg width="74" height="121" viewBox="0 0 74 121" fill="none" xmlns="http://www.w3.org/2000/svg">
<path d="M56.6282 96.0293C55.3323 92.7117 54.0627 89.4046 52.6696 86.1394C51.2765 82.8742 50.0436 79.5514 48.6781 76.2744C48.5169 75.8888 48.2103 75.5822 47.8247 75.4209L29.1879 67.6186L30.1223 70.3184L39.8584 53.5638C40.0048 53.2979 40.0888 53.0022 40.104 52.699C40.1192 52.3958 40.0652 52.0932 39.9461 51.814C39.827 51.5348 39.6459 51.2863 39.4165 51.0875C39.1871 50.8887 38.9155 50.7447 38.6222 50.6664C31.7029 48.7189 24.7761 46.7962 17.8418 44.8985L19.0318 47.8916C20.868 44.8518 22.412 41.6449 23.6431 38.3137C24.8899 34.9894 25.812 31.5521 26.3962 28.05C26.4739 27.5763 26.3664 27.0908 26.0959 26.6941C25.8255 26.2975 25.4129 26.02 24.9435 25.9192C19.3098 24.6883 13.8479 22.7722 8.67992 20.2138L9.40762 22.48C12.0135 17.1716 14.6679 11.875 17.2213 6.5455C17.3767 6.24417 17.4061 5.89343 17.303 5.57043C17.1998 5.24743 16.9726 4.97864 16.6713 4.82318C16.37 4.66772 16.0192 4.63833 15.6962 4.74148C15.3732 4.84462 15.1044 5.07185 14.949 5.37318C12.0518 10.5341 9.25442 15.7503 6.38868 20.9848C6.18153 21.3662 6.13407 21.8143 6.25671 22.2307C6.37935 22.6471 6.66207 22.9979 7.04292 23.2062L7.06254 23.2522C12.4844 26.037 18.2287 28.1434 24.1656 29.5236L22.7247 27.3442C22.4069 28.9693 22.0275 30.5772 21.5351 32.2006C21.0427 33.8241 20.5491 35.3176 19.9702 36.891C19.3912 38.4644 18.7099 39.951 17.9709 41.4296C17.2318 42.9083 16.4495 44.3619 15.5845 45.7746C15.4187 46.0391 15.3171 46.3387 15.2879 46.6494C15.2586 46.9602 15.3024 47.2734 15.4159 47.5642C15.5294 47.855 15.7094 48.1151 15.9414 48.3239C16.1735 48.5326 16.4511 48.6842 16.7522 48.7664C23.6751 50.7052 30.6054 52.6191 37.5432 54.508L36.2992 51.5923L26.827 68.4301C26.7049 68.6444 26.6265 68.8807 26.5962 69.1255C26.5658 69.3702 26.5842 69.6185 26.6502 69.8561C26.7162 70.0937 26.8285 70.3159 26.9808 70.5099C27.133 70.7039 27.3221 70.8659 27.5371 70.9865L27.7812 71.0998L46.6039 78.4206L45.7348 77.5302C47.1279 80.7954 48.6367 84.0004 50.0942 87.2382C51.5517 90.476 53.0144 93.7006 54.5087 96.9227C54.63 97.2069 54.8592 97.4313 55.1459 97.5465C55.4326 97.6617 55.7533 97.6583 56.0375 97.537C56.3217 97.4158 56.546 97.1866 56.6613 96.8999C56.7765 96.6132 56.7731 96.2925 56.6518 96.0083L56.6282 96.0293Z" fill="#C1CEBE"/>
<path d="M44.3726 99.8225C45.7927 100.739 47.1768 101.706 48.525 102.726C49.8798 103.735 51.2199 104.838 52.5064 105.865C53.1594 106.402 53.7927 106.969 54.4366 107.51C55.0804 108.05 55.7399 108.628 56.3325 109.201C56.9251 109.775 57.5701 110.369 58.1706 110.961L60.0086 112.721C60.2923 112.993 60.641 113.187 61.0212 113.285C61.4015 113.383 61.8005 113.381 62.18 113.28C62.5595 113.18 62.9068 112.983 63.1883 112.709C63.4699 112.436 63.6764 112.094 63.7879 111.718L63.9636 111.11C64.4222 109.552 64.8423 107.988 65.2239 106.419C65.6335 104.831 65.9118 103.266 66.1652 101.669C66.4397 100.074 66.5764 98.459 66.5735 96.8411C66.5715 96.0149 66.5242 95.1894 66.4317 94.3684C66.3499 93.5128 66.1958 92.6656 65.971 91.836C65.8867 91.5723 65.7311 91.337 65.5213 91.1563C65.3115 90.9755 65.0558 90.8564 64.7825 90.812C64.5092 90.7677 64.2289 90.7999 63.9728 90.905C63.7166 91.0101 63.4945 91.1841 63.3312 91.4076C62.8409 92.1177 62.4119 92.8682 62.0486 93.6509C61.6992 94.3989 61.3911 95.1655 61.1257 95.9473C60.5988 97.4803 60.2052 99.0559 59.9494 100.657C59.6829 102.249 59.4834 103.845 59.3324 105.454C59.1814 107.062 59.0974 108.674 59.0304 110.301L62.9906 108.677L60.7525 107.457C60.0113 107.045 59.2556 106.65 58.5236 106.234C57.7916 105.817 57.074 105.384 56.3499 104.987C55.6257 104.589 54.8885 104.11 54.1907 103.646C52.7767 102.728 51.3641 101.786 49.9896 100.807C48.6151 99.8281 47.2695 98.8148 45.9595 97.732C45.8246 97.6144 45.6675 97.525 45.4975 97.4691C45.3275 97.4131 45.148 97.3918 44.9696 97.4064C44.7913 97.421 44.6176 97.4711 44.4589 97.5539C44.3003 97.6367 44.1598 97.7505 44.0458 97.8884C43.9318 98.0264 43.8466 98.1858 43.7952 98.3573C43.7438 98.5287 43.7273 98.7087 43.7466 98.8866C43.766 99.0646 43.8207 99.2368 43.9077 99.3932C43.9947 99.5497 44.1122 99.6871 44.2531 99.7973L44.3726 99.8225Z" fill="#C1CEBE"/>
</svg>

<svg xmlns="http://www.w3.org/2000/svg" width="74" height="121" fill="#c1cebe" xmlns:v="https://vecta.io/nano"><path d="M56.628 96.03l-3.96-9.9c-1.393-3.265-2.626-6.588-3.992-9.865a1.59 1.59 0 0 0-.853-.853L29.188 67.62l.934 2.7 9.736-16.755a2 2 0 0 0-1.236-2.898L17.842 44.9l1.2 2.993a56.21 56.21 0 0 0 4.611-9.578c1.247-3.324 2.17-6.762 2.753-10.264a1.87 1.87 0 0 0-1.453-2.131A70.65 70.65 0 0 1 8.68 20.214l.728 2.266L17.22 6.546a1.28 1.28 0 0 0-.55-1.722 1.28 1.28 0 0 0-1.722.55L6.4 20.985a1.64 1.64 0 0 0 .654 2.221l.02.046a74.22 74.22 0 0 0 17.103 6.271l-1.44-2.18c-.318 1.625-.697 3.233-1.2 4.856s-.986 3.117-1.565 4.7-1.26 3.06-2 4.54-1.52 2.932-2.386 4.345a2 2 0 0 0 1.167 2.992l20.8 5.742-1.244-2.916-9.472 16.838a1.87 1.87 0 0 0 .71 2.556l.244.113 18.823 7.32-.87-.9c1.393 3.265 2.902 6.47 4.36 9.708l4.414 9.685c.12.284.35.5.637.624a1.17 1.17 0 0 0 .892-.01c.285-.122.508-.35.624-.637a1.16 1.16 0 0 0-.01-.892l-.024.02zm-12.255 3.793l4.152 2.903 3.98 3.14 1.93 1.645 1.896 1.7 3.676 3.52a2.29 2.29 0 0 0 2.173.559 2.28 2.28 0 0 0 1.008-.571 2.29 2.29 0 0 0 .6-.99l.176-.608 1.26-4.7c.4-1.588.688-3.153.94-4.75a28.12 28.12 0 0 0 .408-4.828c-.002-.826-.05-1.652-.142-2.473a15.22 15.22 0 0 0-.461-2.532 1.5 1.5 0 0 0-2.64-.428 13.93 13.93 0 0 0-1.283 2.243c-.35.748-.657 1.515-.923 2.296-.527 1.533-.92 3.1-1.176 4.7l-.617 4.797-.302 4.847 3.96-1.624-2.238-1.22-2.23-1.223-2.174-1.247c-.724-.398-1.46-.877-2.16-1.34l-4.2-2.84-4.03-3.075a1.34 1.34 0 0 0-1.914.156 1.34 1.34 0 0 0 .208 1.909l.12.025z"/></svg>
